icons/svg/gate.svg

﻿<?xml version="1.0" encoding="utf-8"?>
<!DOCTYPE svg PUBLIC "-//W3C//DTD SVG 1.1//EN" "http://www.w3.org/Graphics/SVG/1.1/DTD/svg11.dtd">
<svg xmlns="http://www.w3.org/2000/svg" xmlns:xlink="http://www.w3.org/1999/xlink" version="1.1" baseProfile="full" width="24" height="24" viewBox="0 0 24.00 24.00" enable-background="new 0 0 24.00 24.00" xml:space="preserve">
	<path fill="#000000" fill-opacity="1" stroke-width="1.33333" stroke-linejoin="miter" d="M 8.8125,5.53125L 8.8125,10.5312L 6.8125,10.5312L 6.8125,6.53125L 4.8125,6.53125L 4.8125,10.5312L 2.8125,10.5312L 2.8125,8.53125L 0.812501,8.53125L 0.812501,20.5312L 2.8125,20.5312L 2.8125,18.5312L 4.8125,18.5312L 4.8125,20.5312L 6.8125,20.5312L 6.8125,18.5312L 8.8125,18.5312L 8.8125,20.5312L 10.8125,20.5312L 10.8125,18.5312L 12.8125,18.5312L 12.8125,20.5312L 14.8125,20.5312L 14.8125,18.5312L 16.8125,18.5312L 16.8125,20.5312L 18.8125,20.5312L 18.8125,18.5312L 20.8125,18.5312L 20.8125,20.5312L 22.8125,20.5312L 22.8125,8.53125L 20.8125,8.53125L 20.8125,10.5312L 18.8125,10.5312L 18.8125,6.53125L 16.8125,6.53125L 16.8125,10.5312L 14.8125,10.5312L 14.8125,5.53125L 12.8125,5.53125L 12.8125,10.5312L 10.8125,10.5312L 10.8125,5.53125L 8.8125,5.53125 Z M 2.8125,12.5312L 4.8125,12.5312L 4.8125,16.5312L 2.8125,16.5312L 2.8125,12.5312 Z M 6.8125,12.5312L 8.8125,12.5312L 8.8125,16.5312L 6.8125,16.5312L 6.8125,12.5312 Z M 10.8125,12.5312L 12.8125,12.5312L 12.8125,16.5312L 10.8125,16.5312L 10.8125,12.5312 Z M 14.8125,12.5312L 16.8125,12.5312L 16.8125,16.5312L 14.8125,16.5312L 14.8125,12.5312 Z M 18.8125,12.5312L 20.8125,12.5312L 20.8125,16.5312L 18.8125,16.5312L 18.8125,12.5312 Z "/>
</svg>

<svg xmlns="http://www.w3.org/2000/svg" version="1.1" baseProfile="full" width="24" height="24" viewBox="0 0 24.00 24.00" xml:space="preserve"><path fill="#000" fill-opacity="1" stroke-width="1.333" stroke-linejoin="miter" d="M8.813 5.53v5h-2v-4h-2v4h-2v-2h-2v12h2v-2h2v2h2v-2h2v2h2v-2h2v2h2v-2h2v2h2v-2h2v2h2v-12h-2v2h-2v-4h-2v4h-2v-5h-2v5h-2v-5h-2zm-6 7h2v4h-2v-4zm4 0h2v4h-2v-4zm4 0h2v4h-2v-4zm4 0h2v4h-2v-4zm4 0h2v4h-2v-4z"/></svg>
